X:160
T: Krauserlin, Mauserlin
N: A0197B
O: Europa, Mitteleuropa, Deutschland
N: Baseler handschr. Tenor. (Mitte des 16. Jh. Fol. 22)
R: Romanze, Ballade, Lied
M: 4/2
L: 1/4
K: G
G2 | G4G2G2 | A6B2 | c6c2 | c4z2
c2 | c2c2B2c2 | d6c2 | B2AGA4 | G4z2
G2 | G4G2G2 | A6B2 | c6c2 | c4z2
c2 | c2c2B2c2 | d6c2 | B2AGA4 | G4z2
G2 | c4c4 | B4c4 | d2c2d4 | c4z2
c2 | B2c2A2c2 | d2c2A2G2 | c3de2A2 | d6c2 | B2c2A4 | G6

@@@ Tune index: 160
